Origami/32x32/apps/chocolate-doom-setup.svg

<svg width="32" height="32" version="1" xmlns="http://www.w3.org/2000/svg">
 <path d="m11.091015 13a1.0909945 1.2001198 0 0 0 -1.0536 1.51172l3.8181 15.599999a1.0909945 1.2001198 0 0 0 1.053599 0.888281h2.181772a1.0909945 1.2001198 0 0 0 1.0536 -0.888281l3.818099-15.599999a1.0909945 1.2001198 0 0 0 -1.0536 -1.51172z" style="opacity:.2"/>
 <path d="m14.811531 2.0025458c0.07765-0.048746 1.103238 0.6092876 2.158313 1.384548 1.544536 1.1349209 2.526106 2.138408 3.386245 3.4680666 0.212534 0.3285826 0.38824 0.6706975 0.546278 1.0175259 0.09191 0.1432458 0.178796 0.2902705 0.260387 0.4407731 1.670125 3.1444366 0.763531 7.1125546-2.024589 8.8628216-2.788121 1.750268-6.401964 0.619893-8.071742-2.524761-0.07681-0.144755-0.149184-0.292225-0.215494-0.443006-0.0807-0.141683-0.169778-0.278735-0.238683-0.424745-0.9461621-2.005535-0.7538634-4.1525517 0.288931-5.979834 0.552086-0.9674175 1.658745-1.9537468 2.455637-2.4563965 0.994166-0.6270808 1.329305-1.8952882 1.392322-2.9981453 0.01008-0.1765361 0.03914-0.3322508 0.06235-0.3468179z" style="fill:#975a34"/>
 <path d="m11.091015 12a1.0909945 1.2001198 0 0 0 -1.0536 1.51172l3.8181 15.599999a1.0909945 1.2001198 0 0 0 1.053599 0.888281h2.181772a1.0909945 1.2001198 0 0 0 1.0536 -0.888281l3.818099-15.599999a1.0909945 1.2001198 0 0 0 -1.0536 -1.51172z" style="fill:#f1b65c"/>
 <rect x="8" y="12" width="16" height="2" rx=".727" ry="1" style="opacity:.2"/>
 <rect x="8" y="11" width="16" height="2" rx=".727" ry="1" style="fill:#ffcf88"/>
 <path d="m14.810547 2.0019531c-0.02321 0.0145671-0.050467 0.1711202-0.060547 0.3476563-0.063017 1.1028571-0.398412 2.3709661-1.392578 2.9980468-0.796892 0.5026498-1.904945 1.4896138-2.457031 2.4570313-0.669663 1.1734455-0.9811296 2.4779535-0.873047 3.7929685 0.077827-0.970613 0.373886-1.918292 0.873047-2.7929685 0.552086-0.9674175 1.660139-1.9543815 2.457031-2.4570313 0.994166-0.6270807 1.329561-1.8951897 1.392578-2.9980468 0.01008-0.1765361 0.037337-0.3330892 0.060547-0.3476563h0.001953c0.07765-0.048746 1.103128 0.6095053 2.158203 1.3847657 1.544536 1.1349209 2.524627 2.1390914 3.384766 3.46875 0.212534 0.3285826 0.388837 0.6707497 0.546875 1.0175781 0.09191 0.1432458 0.178174 0.2889505 0.259765 0.4394531 0.486683 0.916305 0.748182 1.903835 0.814453 2.884766 0.093536-1.299882-0.161231-2.6549102-0.814453-3.884766-0.081591-0.1505026-0.167855-0.2962073-0.259765-0.4394531-0.158038-0.3468284-0.334341-0.6889956-0.546875-1.0175781-0.860139-1.3296587-1.84023-2.3338291-3.384766-3.46875-1.055075-0.7752605-2.080553-1.4335117-2.158203-1.3847657h-0.001953z" style="fill:#ffffff;opacity:.1"/>
 <circle cx="24" cy="23" r="8" style="fill-rule:evenodd;fill:#cc5e55"/>
 <path d="m23 19-0.0882 1.0536a3.1429 3.1429 0 0 0 -0.91852 0.53126l-0.95759-0.4509-1 1.7321 0.86941 0.6038a3.1429 3.1429 0 0 0 -0.048 0.53013 3.1429 3.1429 0 0 0 0.0457 0.53237l-0.86719 0.60156 1 1.7321 0.95536-0.44978a3.1429 3.1429 0 0 0 0.92075 0.5279l0.0882 1.0558h2l0.0882-1.0536a3.1429 3.1429 0 0 0 0.91854 -0.53126l0.95758 0.4509 1-1.7321-0.86942-0.6038a3.1429 3.1429 0 0 0 0.048 -0.53013 3.1429 3.1429 0 0 0 -0.0457 -0.53237l0.86719-0.60156-1-1.7321-0.95536 0.44978a3.1429 3.1429 0 0 0 -0.921 -0.528l-0.088-1.056h-2zm1 2.8572a1.1429 1.1429 0 0 1 1.143 1.143 1.1429 1.1429 0 0 1 -1.143 1.143 1.1429 1.1429 0 0 1 -1.143 -1.143 1.1429 1.1429 0 0 1 1.143 -1.143z" style="fill:#ffffff"/>
 <path d="M 31.979,23.424 A 8,8 0 0 1 24,31 8,8 0 0 1 16.021,23.576 8,8 0 0 0 16,24 a 8,8 0 0 0 8,8 8,8 0 0 0 8,-8 8,8 0 0 0 -0.021,-0.576 z" style="fill-rule:evenodd;opacity:.2"/>
</svg>

<svg xmlns="http://www.w3.org/2000/svg" width="32" height="32" version="1">
 <path style="opacity:0.2" d="m 11.091015,13 a 1.0909945,1.2001198 0 0 0 -1.0536,1.51172 l 3.8181,15.599999 A 1.0909945,1.2001198 0 0 0 14.909114,31 h 2.181772 a 1.0909945,1.2001198 0 0 0 1.0536,-0.888281 L 21.962585,14.51172 A 1.0909945,1.2001198 0 0 0 20.908985,13 Z"/>
 <path style="fill:#975a34" d="m 14.811531,2.0025458 c 0.07765,-0.048746 1.103238,0.6092876 2.158313,1.384548 1.544536,1.1349209 2.526106,2.138408 3.386245,3.4680666 0.212534,0.3285826 0.38824,0.6706975 0.546278,1.0175259 0.09191,0.1432458 0.178796,0.2902705 0.260387,0.4407731 1.670125,3.1444366 0.763531,7.1125546 -2.024589,8.8628216 -2.788121,1.750268 -6.401964,0.619893 -8.071742,-2.524761 -0.07681,-0.144755 -0.149184,-0.292225 -0.215494,-0.443006 -0.0807,-0.141683 -0.169778,-0.278735 -0.238683,-0.424745 -0.9461621,-2.005535 -0.7538634,-4.1525517 0.288931,-5.979834 0.552086,-0.9674175 1.658745,-1.9537468 2.455637,-2.4563965 0.994166,-0.6270808 1.329305,-1.8952882 1.392322,-2.9981453 0.01008,-0.1765361 0.03914,-0.3322508 0.06235,-0.3468179 z"/>
 <path style="fill:#f1b65c" d="m 11.091015,12 a 1.0909945,1.2001198 0 0 0 -1.0536,1.51172 l 3.8181,15.599999 A 1.0909945,1.2001198 0 0 0 14.909114,30 h 2.181772 a 1.0909945,1.2001198 0 0 0 1.0536,-0.888281 L 21.962585,13.51172 A 1.0909945,1.2001198 0 0 0 20.908985,12 Z"/>
 <rect style="opacity:0.2" width="16" height="2" x="8" y="12" rx=".727" ry="1"/>
 <rect style="fill:#ffcf88" width="16" height="2" x="8" y="11" rx=".727" ry="1"/>
 <path style="fill:#ffffff;opacity:0.1" d="M 14.810547 2.0019531 C 14.787337 2.0165202 14.76008 2.1730733 14.75 2.3496094 C 14.686983 3.4524665 14.351588 4.7205755 13.357422 5.3476562 C 12.56053 5.850306 11.452477 6.83727 10.900391 7.8046875 C 10.230728 8.978133 9.9192614 10.282641 10.027344 11.597656 C 10.105171 10.627043 10.40123 9.679364 10.900391 8.8046875 C 11.452477 7.83727 12.56053 6.850306 13.357422 6.3476562 C 14.351588 5.7205755 14.686983 4.4524665 14.75 3.3496094 C 14.76008 3.1730733 14.787337 3.0165202 14.810547 3.0019531 L 14.8125 3.0019531 C 14.89015 2.9532071 15.915628 3.6114584 16.970703 4.3867188 C 18.515239 5.5216397 19.49533 6.5258102 20.355469 7.8554688 C 20.568003 8.1840514 20.744306 8.5262185 20.902344 8.8730469 C 20.994254 9.0162927 21.080518 9.1619974 21.162109 9.3125 C 21.648792 10.228805 21.910291 11.216335 21.976562 12.197266 C 22.070098 10.897384 21.815331 9.5423558 21.162109 8.3125 C 21.080518 8.1619974 20.994254 8.0162927 20.902344 7.8730469 C 20.744306 7.5262185 20.568003 7.1840513 20.355469 6.8554688 C 19.49533 5.5258101 18.515239 4.5216397 16.970703 3.3867188 C 15.915628 2.6114583 14.89015 1.9532071 14.8125 2.0019531 L 14.810547 2.0019531 z"/>
 <g>
  <circle style="fill:#cc5e55;fill-rule:evenodd" cx="24" cy="23" r="8"/>
  <path style="fill:#ffffff" d="m 23,19 -0.0882,1.0536 a 3.1429,3.1429 0 0 0 -0.91852,0.53126 l -0.95759,-0.4509 -1,1.7321 0.86941,0.6038 a 3.1429,3.1429 0 0 0 -0.048,0.53013 3.1429,3.1429 0 0 0 0.0457,0.53237 l -0.86719,0.60156 1,1.7321 0.95536,-0.44978 a 3.1429,3.1429 0 0 0 0.92075,0.5279 l 0.0882,1.0558 h 2 l 0.0882,-1.0536 a 3.1429,3.1429 0 0 0 0.91854,-0.53126 l 0.95758,0.4509 1,-1.7321 -0.86942,-0.6038 a 3.1429,3.1429 0 0 0 0.048,-0.53013 3.1429,3.1429 0 0 0 -0.0457,-0.53237 l 0.86719,-0.60156 -1,-1.7321 -0.95536,0.44978 a 3.1429,3.1429 0 0 0 -0.921,-0.528 l -0.088,-1.056 h -2 z m 1,2.8572 a 1.1429,1.1429 0 0 1 1.143,1.143 A 1.1429,1.1429 0 0 1 24,24.1432 1.1429,1.1429 0 0 1 22.857,23.0002 1.1429,1.1429 0 0 1 24,21.8572 Z"/>
  <path style="opacity:0.2;fill-rule:evenodd" d="M 31.979,23.424 A 8,8 0 0 1 24,31 8,8 0 0 1 16.021,23.576 8,8 0 0 0 16,24 a 8,8 0 0 0 8,8 8,8 0 0 0 8,-8 8,8 0 0 0 -0.021,-0.576 z"/>
 </g>
</svg>
